Numix-GalliumOS/64/actions/gtk-undelete.svg

<?xml version="1.0" encoding="UTF-8" standalone="no"?>
<svg
   xmlns:dc="http://purl.org/dc/elements/1.1/"
   xmlns:cc="http://creativecommons.org/ns#"
   xmlns:rdf="http://www.w3.org/1999/02/22-rdf-syntax-ns#"
   xmlns:svg="http://www.w3.org/2000/svg"
   xmlns="http://www.w3.org/2000/svg"
   xmlns:sodipodi="http://sodipodi.sourceforge.net/DTD/sodipodi-0.dtd"
   xmlns:inkscape="http://www.inkscape.org/namespaces/inkscape"
   width="64"
   height="64"
   viewBox="0 0 64 64"
   id="svg2"
   version="1.1"
   inkscape:version="0.91 r"
   sodipodi:docname="gtk-undelete.svg">
  <metadata
     id="metadata20">
    <rdf:RDF>
      <cc:Work
         rdf:about="">
        <dc:format>image/svg+xml</dc:format>
        <dc:type
           rdf:resource="http://purl.org/dc/dcmitype/StillImage" />
        <dc:title></dc:title>
      </cc:Work>
    </rdf:RDF>
  </metadata>
  <defs
     id="defs18" />
  <sodipodi:namedview
     pagecolor="#ffffff"
     bordercolor="#666666"
     borderopacity="1"
     objecttolerance="10"
     gridtolerance="10"
     guidetolerance="10"
     inkscape:pageopacity="0"
     inkscape:pageshadow="2"
     inkscape:window-width="1366"
     inkscape:window-height="747"
     id="namedview16"
     showgrid="true"
     inkscape:zoom="3.6875"
     inkscape:cx="25.402205"
     inkscape:cy="7.6704082"
     inkscape:window-x="0"
     inkscape:window-y="21"
     inkscape:window-maximized="1"
     inkscape:current-layer="svg2">
    <inkscape:grid
       type="xygrid"
       id="grid4159" />
  </sodipodi:namedview>
  <path
     style="fill:#dc322f"
     d="M 56 20 L 56 57.714844 C 56 64 56 64 49.144531 64 L 14.855469 64 C 8 64 8 64 8 57.714844 L 8 20 C 21.714844 20 45.714844 20 56 20 Z "
     id="path4" />
  <g
     style="fill-opacity:.667;fill:#fff"
     id="g6">
    <path
       d="M 12 28 L 12 56 L 20 56 L 20 28 Z "
       id="path8" />
    <path
       d="M 28 28 L 28 56 L 36 56 L 36 28 Z "
       id="path10" />
    <path
       d="M 44 28 L 44 56 L 52 56 L 52 28 Z "
       id="path12" />
  </g>
  <path
     style="fill:#dc322f"
     d="M 8 16 L 56 16 L 56 8 L 44 8 L 44 0 L 20 0 L 20 8 L 8 8 Z "
     id="path14" />
  <path
     id="path4150"
     d="m 50.177843,63.890801 c 1.92477,-0.807868 3.613506,-1.734969 5.039441,-2.778871 C 69.260075,50.084045 59.684892,33.639552 43.011665,33.639552 l 0,-9.507049 L 24,38.391858 l 19.011665,16.634295 0,-9.504616 c 14.295857,2.399272 14.344523,4.562508 7.190511,16.609961 0,0 -2.377371,2.401704 0,1.759303 z"
     style="fill:#859900;fill-opacity:1"
     inkscape:connector-curvature="0" />
</svg>

<svg xmlns="http://www.w3.org/2000/svg" viewBox="0 0 64 64">
 <path d="M 56 20 L 56 57.714844 C 56 64 56 64 49.144531 64 L 14.855469 64 C 8 64 8 64 8 57.714844 L 8 20 C 21.714844 20 45.714844 20 56 20 Z " style="fill:#dc322f"/>
 <g style="fill:#fff;fill-opacity:0.667">
  <path d="m 12 28 l 0 28 l 8 0 l 0 -28 Z"/>
  <path d="m 28 28 l 0 28 l 8 0 l 0 -28 Z"/>
  <path d="m 44 28 l 0 28 l 8 0 l 0 -28 Z"/>
 </g>
 <path d="M 8 16 L 56 16 L 56 8 L 44 8 L 44 0 L 20 0 L 20 8 L 8 8 Z " style="fill:#dc322f"/>
 <path d="m 50.18 63.891 c 1.925 -0.808 3.614 -1.735 5.04 -2.779 c 14.04 -11.03 4.468 -27.472 -12.206 -27.472 l 0 -9.507 l -19.01 14.259 l 19.01 16.634 0 -9.505 c 14.296 2.399 14.345 4.563 7.191 16.61 0 0 -2.377 2.402 0 1.759 z" style="fill:#859900;fill-opacity:1"/>
</svg>
